flaticon/emoticons/jew.svg

<svg xmlns="http://www.w3.org/2000/svg" width="32" height="32" viewBox="0 0 24 24">
    <path d="M16.917969 18.019531C16.707031 17.949219 16.484375 18.066406 16.414062 18.273438 16.34375 18.484375 16.457031 18.710938 16.667969 18.78125 16.695312 18.789062 16.722656 18.804688 16.75 18.816406 14.746094 20.585938 11.757812 20.628906 9.707031 18.964844 9.742188 18.972656 9.78125 18.980469 9.816406 18.992188 10.023438 19.058594 10.25 18.945312 10.320312 18.734375 10.390625 18.527344 10.273438 18.300781 10.066406 18.230469 9.664062 18.097656 9.238281 18.128906 8.863281 18.320312 8.492188 18.507812 8.210938 18.832031 8.082031 19.230469 8.011719 19.441406 8.125 19.667969 8.335938 19.738281 8.378906 19.75 8.417969 19.757812 8.460938 19.757812 8.628906 19.757812 8.785156 19.648438 8.839844 19.480469 8.859375 19.425781 8.882812 19.375 8.910156 19.328125 10.105469 20.425781 11.621094 20.984375 13.144531 20.984375 14.585938 20.984375 16.027344 20.484375 17.195312 19.488281 17.199219 19.578125 17.1875 19.664062 17.160156 19.753906 17.089844 19.964844 17.203125 20.191406 17.414062 20.257812 17.457031 20.273438 17.5 20.28125 17.539062 20.28125 17.707031 20.28125 17.863281 20.171875 17.917969 20.003906 18.191406 19.179688 17.742188 18.289062 16.917969 18.019531zM16.398438 12.398438C16.507812 12.398438 16.605469 12.355469 16.679688 12.285156 16.753906 12.207031 16.800781 12.105469 16.800781 12 16.800781 11.894531 16.753906 11.792969 16.683594 11.714844 16.53125 11.566406 16.261719 11.566406 16.113281 11.714844 16.042969 11.792969 16 11.894531 16 12 16 12.105469 16.042969 12.207031 16.113281 12.285156 16.191406 12.355469 16.296875 12.398438 16.398438 12.398438zM16.398438 12.398438"/>
    <path d="M16.199219 13.265625C17.414062 13.265625 18.398438 12.28125 18.398438 11.066406 18.398438 9.855469 17.414062 8.867188 16.199219 8.867188 14.984375 8.867188 14 9.855469 14 11.066406 14 12.28125 14.984375 13.265625 16.199219 13.265625zM16.199219 9.667969C16.972656 9.667969 17.597656 10.292969 17.597656 11.066406 17.597656 11.839844 16.972656 12.464844 16.199219 12.464844 15.425781 12.464844 14.800781 11.839844 14.800781 11.066406 14.800781 10.292969 15.425781 9.667969 16.199219 9.667969zM8.953125 12.617188C9.027344 12.539062 9.066406 12.441406 9.066406 12.332031 9.066406 12.226562 9.027344 12.125 8.953125 12.046875 8.800781 11.898438 8.539062 11.898438 8.386719 12.050781 8.3125 12.125 8.273438 12.226562 8.273438 12.332031 8.273438 12.441406 8.3125 12.539062 8.386719 12.617188 8.460938 12.691406 8.5625 12.730469 8.667969 12.730469 8.777344 12.730469 8.878906 12.691406 8.953125 12.617188zM8.953125 12.617188"/>
    <path d="M10.667969 11.398438C10.667969 10.1875 9.683594 9.199219 8.46875 9.199219 7.257812 9.199219 6.269531 10.1875 6.269531 11.398438 6.269531 12.613281 7.257812 13.601562 8.46875 13.601562 9.683594 13.601562 10.667969 12.613281 10.667969 11.398438zM7.070312 11.398438C7.070312 10.628906 7.699219 10 8.46875 10 9.242188 10 9.871094 10.628906 9.871094 11.398438 9.871094 12.171875 9.242188 12.800781 8.46875 12.800781 7.699219 12.800781 7.070312 12.171875 7.070312 11.398438zM14.15625 17.054688C13.34375 17.191406 12.414062 16.964844 11.984375 16.515625 11.980469 16.507812 11.957031 16.480469 11.953125 16.476562 11.808594 16.3125 11.570312 16.308594 11.402344 16.449219 11.238281 16.589844 11.226562 16.847656 11.363281 17.015625 11.378906 17.039062 11.394531 17.058594 11.414062 17.074219 11.90625 17.589844 12.777344 17.894531 13.664062 17.894531 13.871094 17.894531 14.082031 17.878906 14.289062 17.84375 15.0625 17.710938 15.625 17.34375 15.875 16.804688 16.195312 16.101562 16.210938 15.425781 15.914062 14.804688 15.425781 13.773438 14.195312 13.128906 13.207031 12.871094 12.738281 12.75 11.949219 12.785156 11.574219 12.941406 11.371094 13.03125 11.277344 13.265625 11.363281 13.46875 11.449219 13.671875 11.683594 13.765625 11.886719 13.679688 12.078125 13.597656 12.699219 13.566406 13.003906 13.644531 13.84375 13.863281 14.84375 14.414062 15.191406 15.144531 15.382812 15.554688 15.367188 15.988281 15.144531 16.472656 15.015625 16.757812 14.65625 16.972656 14.15625 17.054688zM14.15625 17.054688"/>
    <path d="M 23.917969 10.824219 C 23.757812 10.144531 23.371094 9.5625 22.886719 9.265625 C 22.5625 9.066406 22.214844 9 21.882812 9.078125 C 21.808594 9.097656 21.734375 9.125 21.664062 9.160156 C 21.191406 8.003906 20.582031 7.058594 19.902344 6.285156 L 19.921875 6.273438 L 19.605469 5.941406 C 17.875 4.132812 15.777344 3.335938 14.175781 2.984375 C 14.425781 2.691406 14.503906 2.285156 14.378906 1.910156 C 14.253906 1.539062 13.953125 1.28125 13.574219 1.214844 C 13.511719 1.207031 13.445312 1.199219 13.378906 1.199219 C 13.371094 1.199219 13.359375 1.203125 13.351562 1.203125 C 13.324219 1.203125 13.296875 1.207031 13.265625 1.210938 C 13.21875 1.214844 13.171875 1.21875 13.121094 1.230469 C 13.09375 1.234375 13.066406 1.242188 13.039062 1.246094 C 12.515625 1.367188 11.871094 1.734375 11.789062 2.285156 L 11.746094 2.367188 L 11.53125 2.765625 C 11.476562 2.769531 11.414062 2.777344 11.347656 2.78125 C 9.929688 2.9375 7.15625 3.523438 4.90625 5.738281 L 4.59375 6.046875 L 4.613281 6.0625 C 3.382812 7.378906 2.355469 9.214844 1.890625 11.785156 C 1.886719 11.796875 1.886719 11.808594 1.886719 11.820312 C 1.785156 11.792969 1.679688 11.773438 1.574219 11.773438 C 0.691406 11.773438 0 12.726562 0 13.941406 C 0 15.160156 0.691406 16.113281 1.574219 16.113281 C 1.734375 16.113281 1.894531 16.070312 2.042969 16.007812 C 2.292969 16.957031 2.6875 17.859375 3.234375 18.675781 C 4.519531 20.59375 7.105469 22.878906 12.152344 22.796875 C 12.226562 22.800781 12.300781 22.800781 12.375 22.800781 C 17.097656 22.800781 19.605469 20.71875 20.882812 18.957031 C 22.035156 17.367188 22.621094 15.378906 22.574219 13.328125 C 22.589844 13.328125 22.601562 13.332031 22.617188 13.332031 C 22.707031 13.332031 22.796875 13.324219 22.886719 13.300781 C 23.742188 13.097656 24.199219 12.007812 23.917969 10.824219 Z M 11.808594 3.542969 L 12.027344 3.527344 L 12.535156 2.585938 C 12.738281 2.222656 13.078125 2.019531 13.335938 2 C 13.371094 2 13.410156 2 13.445312 2.003906 C 13.550781 2.023438 13.597656 2.101562 13.621094 2.164062 C 13.648438 2.25 13.648438 2.378906 13.554688 2.476562 L 13.296875 2.746094 L 13.246094 2.800781 C 13.238281 2.8125 13.230469 2.824219 13.222656 2.832031 C 13.203125 2.859375 13.179688 2.886719 13.164062 2.917969 C 13.160156 2.925781 13.15625 2.9375 13.152344 2.949219 C 13.136719 2.980469 13.125 3.011719 13.117188 3.046875 C 13.097656 3.136719 13.097656 3.230469 13.128906 3.324219 C 13.1875 3.503906 13.34375 3.636719 13.535156 3.671875 C 14.96875 3.921875 16.984375 4.558594 18.691406 6.160156 C 17.207031 7.066406 14.894531 7.601562 12.382812 7.601562 C 9.714844 7.601562 7.253906 6.992188 5.808594 5.992188 C 8.042969 4.007812 10.722656 3.617188 11.808594 3.542969 Z M 1.574219 15.3125 C 1.207031 15.3125 0.800781 14.75 0.800781 13.941406 C 0.800781 13.136719 1.207031 12.574219 1.574219 12.574219 C 1.640625 12.574219 1.710938 12.59375 1.777344 12.628906 C 1.761719 12.792969 1.757812 12.953125 1.75 13.117188 C 1.746094 13.191406 1.742188 13.269531 1.738281 13.34375 C 1.734375 13.535156 1.734375 13.722656 1.742188 13.910156 C 1.742188 13.925781 1.742188 13.941406 1.742188 13.953125 C 1.757812 14.375 1.796875 14.789062 1.867188 15.195312 C 1.785156 15.261719 1.6875 15.3125 1.574219 15.3125 Z M 20.234375 18.488281 C 18.507812 20.867188 15.792969 22.058594 12.152344 21.996094 C 8.371094 22.054688 5.609375 20.78125 3.898438 18.230469 C 3.332031 17.386719 2.945312 16.441406 2.726562 15.441406 L 2.730469 15.4375 L 2.691406 15.25 C 2.605469 14.804688 2.554688 14.347656 2.539062 13.886719 C 2.53125 13.683594 2.535156 13.476562 2.542969 13.269531 C 2.542969 13.214844 2.546875 13.160156 2.546875 13.105469 C 2.558594 12.925781 2.570312 12.75 2.589844 12.570312 C 2.613281 12.355469 2.636719 12.140625 2.675781 11.925781 C 3.113281 9.503906 4.070312 7.78125 5.21875 6.554688 C 6.785156 7.699219 9.480469 8.398438 12.378906 8.398438 C 15.121094 8.398438 17.65625 7.785156 19.265625 6.742188 C 19.960938 7.53125 20.578125 8.511719 21.039062 9.734375 L 21.035156 9.738281 L 21.109375 9.945312 C 21.332031 10.574219 21.5 11.203125 21.625 11.867188 C 21.671875 12.132812 21.707031 12.398438 21.730469 12.667969 C 21.734375 12.710938 21.742188 12.757812 21.746094 12.800781 C 21.917969 14.871094 21.386719 16.902344 20.234375 18.488281 Z M 22.699219 12.523438 C 22.644531 12.535156 22.585938 12.535156 22.523438 12.523438 C 22.523438 12.507812 22.519531 12.492188 22.519531 12.476562 C 22.492188 12.222656 22.457031 11.972656 22.410156 11.71875 C 22.355469 11.425781 22.292969 11.140625 22.222656 10.863281 C 22.214844 10.832031 22.207031 10.800781 22.199219 10.765625 C 22.121094 10.472656 22.039062 10.1875 21.945312 9.914062 C 21.988281 9.886719 22.027344 9.867188 22.070312 9.859375 C 22.222656 9.820312 22.371094 9.882812 22.46875 9.945312 C 22.769531 10.132812 23.027344 10.539062 23.140625 11.007812 C 23.324219 11.796875 23.054688 12.4375 22.699219 12.523438 Z M 22.699219 12.523438"/>
    <path d="M18.800781 15.601562C18.800781 15.820312 18.621094 16 18.398438 16 18.179688 16 18 15.820312 18 15.601562 18 15.378906 18.179688 15.199219 18.398438 15.199219 18.621094 15.199219 18.800781 15.378906 18.800781 15.601562zM17.199219 14.398438C17.199219 14.621094 17.019531 14.800781 16.800781 14.800781 16.578125 14.800781 16.398438 14.621094 16.398438 14.398438 16.398438 14.179688 16.578125 14 16.800781 14 17.019531 14 17.199219 14.179688 17.199219 14.398438zM19.199219 14C19.199219 14.21875 19.019531 14.398438 18.800781 14.398438 18.578125 14.398438 18.398438 14.21875 18.398438 14 18.398438 13.777344 18.578125 13.601562 18.800781 13.601562 19.019531 13.601562 19.199219 13.777344 19.199219 14zM6.558594 13.296875C6.558594 13.519531 6.378906 13.699219 6.15625 13.699219 5.9375 13.699219 5.757812 13.519531 5.757812 13.296875 5.757812 13.078125 5.9375 12.898438 6.15625 12.898438 6.378906 12.898438 6.558594 13.078125 6.558594 13.296875zM8.316406 14.246094C8.316406 14.46875 8.140625 14.644531 7.917969 14.644531 7.695312 14.644531 7.519531 14.46875 7.519531 14.246094 7.519531 14.023438 7.695312 13.847656 7.917969 13.847656 8.140625 13.847656 8.316406 14.023438 8.316406 14.246094zM6.398438 14.941406C6.398438 15.160156 6.21875 15.339844 6 15.339844 5.777344 15.339844 5.601562 15.160156 5.601562 14.941406 5.601562 14.71875 5.777344 14.539062 6 14.539062 6.21875 14.539062 6.398438 14.71875 6.398438 14.941406zM6.398438 14.941406"/>
</svg>

<svg xmlns="http://www.w3.org/2000/svg" width="32" height="32" viewBox="0 0 24 24">
    <path d="M16.918 18.02a.4.4 0 1 0-.25.762c.027.007.055.023.082.034a5.461 5.461 0 0 1-7.043.149c.035.008.074.015.11.027a.401.401 0 0 0 .25-.762 1.552 1.552 0 0 0-1.204.09 1.553 1.553 0 0 0-.781.91.4.4 0 0 0 .379.528c.168 0 .324-.11.379-.278a.907.907 0 0 1 .07-.152 6.248 6.248 0 0 0 4.235 1.656c1.44 0 2.882-.5 4.05-1.496a.778.778 0 0 1-.035.266c-.07.21.043.437.254.504a.37.37 0 0 0 .125.023c.168 0 .324-.11.379-.277a1.569 1.569 0 0 0-1-1.984zm0 0M16.398 12.398c.11 0 .207-.043.282-.113A.42.42 0 0 0 16.8 12a.434.434 0 0 0-.116-.285.42.42 0 0 0-.57 0A.43.43 0 0 0 16 12a.43.43 0 0 0 .113.285c.078.07.184.113.285.113zm0 0"/>
    <path d="M16.2 13.266a2.199 2.199 0 1 0 0-4.398 2.199 2.199 0 0 0 0 4.398zm0-3.598c.773 0 1.398.625 1.398 1.398 0 .774-.625 1.399-1.399 1.399a1.397 1.397 0 0 1-1.398-1.399c0-.773.625-1.398 1.398-1.398zm0 0M8.953 12.617a.405.405 0 0 0 .113-.285.412.412 0 0 0-.113-.285.412.412 0 0 0-.566.004.396.396 0 0 0-.114.281c0 .11.04.207.114.285a.396.396 0 0 0 .281.113c.11 0 .21-.039.285-.113zm0 0"/>
    <path d="M10.668 11.398c0-1.21-.984-2.199-2.2-2.199-1.21 0-2.198.989-2.198 2.2 0 1.214.988 2.203 2.199 2.203 1.215 0 2.199-.989 2.199-2.204zm-3.598 0c0-.77.63-1.398 1.399-1.398.773 0 1.402.629 1.402 1.398 0 .774-.629 1.403-1.402 1.403-.77 0-1.399-.63-1.399-1.403zm0 0M14.156 17.055c-.812.136-1.742-.09-2.172-.54a.342.342 0 0 0-.03-.038c-.145-.165-.384-.168-.552-.028a.412.412 0 0 0-.039.567.25.25 0 0 0 .051.058c.492.516 1.363.82 2.25.82.207 0 .418-.015.625-.05.774-.133 1.336-.5 1.586-1.04.32-.702.336-1.378.04-2-.49-1.03-1.72-1.675-2.708-1.933-.469-.121-1.258-.086-1.633.07a.405.405 0 0 0-.21.528c.085.203.32.297.523.21.191-.081.812-.113 1.117-.034.84.218 1.84.77 2.187 1.5.192.41.176.843-.046 1.328-.13.285-.489.5-.989.582zm0 0"/>
    <path d="M23.918 10.824c-.16-.68-.547-1.261-1.031-1.558-.325-.2-.672-.266-1.004-.188a1.14 1.14 0 0 0-.219.082 10.112 10.112 0 0 0-1.762-2.875l.02-.012-.317-.332c-1.73-1.808-3.828-2.605-5.43-2.957.25-.293.329-.699.204-1.074a1.025 1.025 0 0 0-1-.71l-.027.003c-.028 0-.055.004-.086.008-.047.004-.094.008-.145.02-.027.003-.055.011-.082.015-.523.121-1.168.488-1.25 1.04l-.043.081-.215.399c-.054.004-.117.011-.183.015-1.418.156-4.192.742-6.442 2.957l-.312.309.02.016C3.382 7.378 2.354 9.215 1.89 11.785c-.004.012-.004.024-.004.035a1.21 1.21 0 0 0-.313-.047c-.883 0-1.574.954-1.574 2.168 0 1.22.691 2.172 1.574 2.172.16 0 .32-.043.469-.105.25.949.644 1.851 1.191 2.668 1.286 1.918 3.871 4.203 8.918 4.12.075.005.149.005.223.005 4.723 0 7.23-2.082 8.508-3.844 1.152-1.59 1.738-3.578 1.691-5.629.016 0 .028.004.043.004.09 0 .18-.008.27-.031.855-.203 1.312-1.293 1.031-2.477zm-12.11-7.281l.22-.016.507-.941c.203-.363.543-.566.8-.586.036 0 .075 0 .11.004.106.02.153.098.176.16a.313.313 0 0 1-.066.313l-.258.27-.05.054-.024.031c-.02.027-.043.055-.059.086l-.012.031a.517.517 0 0 0-.023.375c.058.18.215.313.406.348 1.434.25 3.45.887 5.156 2.488-1.484.906-3.796 1.442-6.308 1.442-2.668 0-5.13-.61-6.574-1.61 2.234-1.984 4.914-2.375 6-2.449zM1.575 15.313c-.367 0-.773-.563-.773-1.372 0-.804.406-1.367.773-1.367a.44.44 0 0 1 .203.055c-.015.164-.02.324-.027.488l-.012.227c-.004.191-.004.379.004.566v.043c.016.422.055.836.125 1.242a.467.467 0 0 1-.293.117zm18.66 3.175c-1.726 2.38-4.441 3.57-8.082 3.508-3.78.059-6.543-1.215-8.254-3.766a8.078 8.078 0 0 1-1.171-2.789l.003-.004-.039-.187a8.772 8.772 0 0 1-.152-1.363 8.142 8.142 0 0 1 .004-.617c0-.055.004-.11.004-.165.012-.18.023-.355.043-.535.023-.215.047-.43.086-.644.437-2.422 1.394-4.145 2.543-5.371 1.566 1.144 4.261 1.843 7.16 1.843 2.742 0 5.277-.613 6.887-1.656a9.592 9.592 0 0 1 1.773 2.992l-.004.004.074.207c.223.63.391 1.258.516 1.922.047.266.082.531.105.801.004.043.012.09.016.133.172 2.07-.36 4.101-1.512 5.687zm2.465-5.965a.443.443 0 0 1-.176 0c0-.015-.003-.03-.003-.046a10.112 10.112 0 0 0-.11-.758 13.74 13.74 0 0 0-.187-.856l-.024-.097c-.078-.293-.16-.579-.254-.852a.35.35 0 0 1 .125-.055c.153-.039.301.024.399.086.3.188.558.594.672 1.063.183.789-.086 1.43-.442 1.515zm0 0"/>
    <path d="M18.8 15.602a.401.401 0 1 1-.801-.005.401.401 0 0 1 .802.005zm0 0M17.2 14.398a.401.401 0 1 1-.803.003.401.401 0 0 1 .802-.003zm0 0M19.2 14a.4.4 0 0 1-.802 0c0-.223.18-.398.403-.398.219 0 .398.175.398.398zm0 0M6.559 13.297a.401.401 0 1 1 0 0zm0 0M8.316 14.246a.395.395 0 0 1-.398.399.395.395 0 0 1-.398-.399c0-.223.175-.398.398-.398.223 0 .398.175.398.398zm0 0M6.398 14.941a.398.398 0 1 1-.797 0 .398.398 0 1 1 .797 0zm0 0"/>
</svg>
